X:1
T: Mrs Hogan's Goose
C:
R:Jig
Q:180
K:Bm
M:6/8
L:1/16
|:dc|B2A2F2 B2A2F2|A2B2F2 B4c2|d2B2B2 B2^A2B2|c2A2F2 F2d2c2|
B2A2F2 B2A2F2|A2B2F2 B4c2|d2c2B2 c2e2c2|c2B2B2 B4:|
|:c2|d4e2 f2d2B2|c4d2 e2c2A2|d4e2 f2d2B2|c2e2c2 B2A2F2|
d4e2 f2d2B2|c4d2 e2c2A2|f2e2d2 c2d2c2|c2B2B2 B4:|
